X:1027
T:Ruthven's Rant.
M:C
L:1/8
Q:1/2=100
I: || ||
Z:Jack Campin * www.campin.me.uk * 2009
K:G
D>GG>B d>Bd>e|(D>G)(G>B) (BA)(Ad)|B>GAB  d>Bde |G<G`B>A ({A}G2)G2:|
g>de>d g>de>d| e<g``d>B   BA  A2 |g>de>d g>de<g|G<G`B>A ({A}G2)G2 |
g>de>d g>de>d| d<B``B>b   A2  A>B|d>eg>d e>de<g|G<GTB>A  {A}G2 G2|]

